X:302
T:Tommy Whelan's* (reel) 
T:Humors of Loughrea
B:CRE2.197 (gan ainm)
F:file ID: cre.2/302tommy_w
L:1/8
M:C
R:reel
Q:180
K:G
d2GA BAA2|bgag (3efg dB|G2GA BAGE|ABAG EGDE|
G2GA BAA2|bgag egdB|G2GA BAGE|ABAG (3EFE D2||
gfeg fdBd|g2ef gaba|geef ed (3Bcd|eaag e2ef|
g2eg fd (3Bcd|g2ef gaba|gege aeag|dgbg efge||

%%%

